public/assets/headerphone/login.svg

<svg width="25" height="24" viewBox="0 0 25 24" fill="none" xmlns="http://www.w3.org/2000/svg">
<g id="24/ login">
<path id="Vector" d="M16.8658 13.25C16.4516 13.25 16.1158 13.5858 16.1158 14C16.1158 14.4142 16.4516 14.75 16.8658 14.75V13.25ZM17.2083 14L17.2086 13.25H17.2083V14ZM20.1045 16.628L19.36 16.7185L19.36 16.7187L20.1045 16.628ZM20.485 19.752L21.2295 19.6615L21.2295 19.6613L20.485 19.752ZM18.5533 22L18.5534 21.25H18.5533V22ZM5.44674 22V21.25H5.44658L5.44674 22ZM3.51502 19.752L4.25954 19.8425L4.25955 19.8425L3.51502 19.752ZM3.89455 16.628L3.15004 16.5375L3.15003 16.5375L3.89455 16.628ZM6.79262 14L6.79233 14.75H6.79262V14ZM7.1342 14.75C7.54842 14.75 7.8842 14.4142 7.8842 14C7.8842 13.5858 7.54842 13.25 7.1342 13.25V14.75ZM16.7486 7C16.7486 9.34721 14.8458 11.25 12.4986 11.25V12.75C15.6743 12.75 18.2486 10.1756 18.2486 7H16.7486ZM12.4986 11.25C10.1514 11.25 8.24864 9.34721 8.24864 7H6.74864C6.74864 10.1756 9.323 12.75 12.4986 12.75V11.25ZM8.24864 7C8.24864 4.65279 10.1514 2.75 12.4986 2.75V1.25C9.323 1.25 6.74864 3.82436 6.74864 7H8.24864ZM12.4986 2.75C14.8458 2.75 16.7486 4.65279 16.7486 7H18.2486C18.2486 3.82436 15.6743 1.25 12.4986 1.25V2.75ZM16.8658 14.75H17.2083V13.25H16.8658V14.75ZM17.2081 14.75C17.7308 14.7502 18.2388 14.9463 18.636 15.3067L19.644 14.1959C18.9746 13.5885 18.1088 13.2503 17.2086 13.25L17.2081 14.75ZM18.636 15.3067C19.0337 15.6676 19.2931 16.169 19.36 16.7185L20.849 16.5375C20.7394 15.6361 20.3128 14.8028 19.644 14.1959L18.636 15.3067ZM19.36 16.7187L19.7405 19.8427L21.2295 19.6613L20.849 16.5373L19.36 16.7187ZM19.7405 19.8425C19.7622 20.0213 19.7466 20.2027 19.6951 20.3743L21.1316 20.806C21.2429 20.4356 21.2762 20.0455 21.2295 19.6615L19.7405 19.8425ZM19.6951 20.3743C19.6435 20.5458 19.5575 20.7027 19.4438 20.835L20.5815 21.8126C20.8332 21.5197 21.0203 21.1764 21.1316 20.806L19.6951 20.3743ZM19.4438 20.835C19.3302 20.9672 19.1917 21.0717 19.0384 21.1427L19.669 22.5037C20.019 22.3416 20.3297 22.1056 20.5815 21.8126L19.4438 20.835ZM19.0384 21.1427C18.8852 21.2137 18.7199 21.25 18.5534 21.25L18.5531 22.75C18.9386 22.7501 19.3191 22.6659 19.669 22.5037L19.0384 21.1427ZM18.5533 21.25H5.44674V22.75H18.5533V21.25ZM5.44658 21.25C5.28006 21.25 5.11481 21.2137 4.96158 21.1427L4.33096 22.5037C4.68094 22.6659 5.06142 22.7501 5.44691 22.75L5.44658 21.25ZM4.96158 21.1427C4.80828 21.0717 4.66983 20.9672 4.5562 20.835L3.41854 21.8126C3.67028 22.1056 3.98103 22.3416 4.33096 22.5037L4.96158 21.1427ZM4.5562 20.835C4.44253 20.7027 4.35647 20.5458 4.30492 20.3743L2.86838 20.806C2.97971 21.1764 3.16684 21.5197 3.41854 21.8126L4.5562 20.835ZM4.30492 20.3743C4.25336 20.2027 4.23779 20.0213 4.25954 19.8425L2.77051 19.6615C2.7238 20.0455 2.75707 20.4356 2.86838 20.806L4.30492 20.3743ZM4.25955 19.8425L4.63908 16.7185L3.15003 16.5375L2.7705 19.6615L4.25955 19.8425ZM4.63907 16.7185C4.70593 16.1688 4.96554 15.6671 5.36357 15.3062L4.35595 14.195C3.6866 14.802 3.2597 15.6357 3.15004 16.5375L4.63907 16.7185ZM5.36357 15.3062C5.76108 14.9457 6.26938 14.7498 6.79233 14.75L6.79292 13.25C5.89228 13.2496 5.02584 13.5876 4.35595 14.195L5.36357 15.3062ZM6.79262 14.75H7.1342V13.25H6.79262V14.75Z" fill="#202020"/>
</g>
</svg>

<svg width="25" height="24" fill="none" xmlns="http://www.w3.org/2000/svg"><path d="M16.866 13.25a.75.75 0 0 0 0 1.5v-1.5Zm.342.75v-.75.75Zm2.897 2.628-.745.09.745-.09Zm.38 3.124.745-.09-.745.09ZM18.553 22v-.75.75ZM5.447 22v-.75.75Zm-1.932-2.248.745.09-.745-.09Zm.38-3.124-.745-.09.745.09ZM6.793 14v.75V14Zm.341.75a.75.75 0 0 0 0-1.5v1.5ZM16.75 7a4.25 4.25 0 0 1-4.25 4.25v1.5A5.75 5.75 0 0 0 18.249 7h-1.5Zm-4.25 4.25A4.25 4.25 0 0 1 8.249 7h-1.5a5.75 5.75 0 0 0 5.75 5.75v-1.5ZM8.249 7a4.25 4.25 0 0 1 4.25-4.25v-1.5A5.75 5.75 0 0 0 6.749 7h1.5Zm4.25-4.25A4.25 4.25 0 0 1 16.749 7h1.5a5.75 5.75 0 0 0-5.75-5.75v1.5Zm4.367 12h.342v-1.5h-.342v1.5Zm.342 0c.523 0 1.03.196 1.428.557l1.008-1.111a3.625 3.625 0 0 0-2.435-.946v1.5Zm1.428.557c.398.36.657.862.724 1.411l1.489-.18a3.776 3.776 0 0 0-1.205-2.342l-1.008 1.11Zm.724 1.412.38 3.124 1.49-.182-.381-3.124-1.489.182Zm.38 3.123c.022.18.007.36-.045.532l1.437.432c.11-.37.144-.76.098-1.145l-1.49.181Zm-.045.532a1.266 1.266 0 0 1-.251.461l1.137.978c.252-.293.44-.637.55-1.007l-1.436-.432Zm-.251.461a1.2 1.2 0 0 1-.406.308l.631 1.36a2.7 2.7 0 0 0 .912-.69l-1.137-.978Zm-.406.308a1.153 1.153 0 0 1-.485.107v1.5a2.65 2.65 0 0 0 1.116-.246l-.63-1.361Zm-.485.107H5.447v1.5h13.106v-1.5Zm-13.106 0c-.167 0-.332-.036-.485-.107l-.631 1.36c.35.163.73.247 1.116.247v-1.5Zm-.485-.107a1.2 1.2 0 0 1-.406-.308l-1.137.978a2.7 2.7 0 0 0 .912.69l.63-1.36Zm-.406-.308c-.113-.132-.2-.29-.251-.46l-1.437.431c.112.37.299.714.55 1.007l1.138-.978Zm-.251-.46a1.303 1.303 0 0 1-.045-.532l-1.49-.181c-.046.384-.013.774.098 1.144l1.437-.432Zm-.045-.532.38-3.125-1.49-.18-.38 3.123 1.49.181Zm.38-3.125c.066-.55.326-1.05.724-1.412l-1.008-1.111a3.777 3.777 0 0 0-1.206 2.343l1.49.18Zm.724-1.412c.397-.36.905-.556 1.428-.556v-1.5c-.9 0-1.766.338-2.436.945l1.008 1.111Zm1.429-.556h.341v-1.5h-.341v1.5Z" fill="#202020"/></svg>
